X: 605
T: the Faithful Brown Cow - 1st Setting   #2
T: drium-fionn donn \.dileas.
R: air, waltz
%S: s:3 b:24(8+8+8)
B: O'Neill's 1850 #605
O: F.O'Neill
Z: John Walsh (walsh@math.ubc.ca)
N: Compacted via repeats and multiple endings [JC]
Q: "Moderate"
M: 3/4
L: 1/8
K: G
    Bc | d2 g2 f2 | g2  a2  b2 | g2 f2 d2 | d4 |\
|[1 de | =f2 e2 d2 | e2 f2 g2 | d2 c2 B2 | c4 :|
|[2 Bc |  d2 e2 f2 | e2 d2 B2 | A2 G2.G2 | G4 |]\
|   fe | d2 c2 A2 |.G2 .G2  AB | c2 d2 BG | A4 ||
|[1 d>c|  d2 g2 f2 | d2 c2 BG | A2 G2 G2 | G4 :|\
 [2 dc |  d2 g2 f/g/a | g2 dc Bc | A2 G2 .G2 | G4 |]
